lunar-logo-dark.svg

<svg width="121" height="40" viewBox="0 0 121 40" fill="none" xmlns="http://www.w3.org/2000/svg">
<g clip-path="url(#clip0_8_10)">
<path d="M0.174019 19.3257C0.0677791 22.3088 0.641614 25.208 1.7767 27.8425C2.39108 29.2687 4.19156 29.7236 5.40633 28.7558L11.7849 23.6742C13.2632 22.4967 12.8194 20.1453 11.0133 19.587L3.22003 17.1783C1.74595 16.7227 0.228537 17.7848 0.174019 19.3257Z" fill="url(#paint0_linear_8_10)"/>
<path d="M6.44706 5.51971C4.35092 7.47841 2.66297 9.9046 1.56422 12.6802C0.996679 14.1141 1.96122 15.6948 3.49401 15.8681L11.5997 16.7842C13.4778 16.9966 14.8274 15.0197 13.9447 13.3489L10.1382 6.13743C9.41339 4.76432 7.58215 4.45965 6.44706 5.51971Z" fill="url(#paint1_linear_8_10)"/>
<path d="M39.8476 20.6862C39.9539 17.7031 39.38 14.8038 38.2449 12.1694C37.6306 10.7431 35.8301 10.2882 34.6153 11.2561L28.2367 16.3376C26.7584 17.5151 27.2023 19.8665 29.0084 20.4248L36.8023 22.8336C38.2757 23.2892 39.7931 22.2277 39.8476 20.6862Z" fill="url(#paint2_linear_8_10)"/>
<path d="M34.5 6.4456C32.5408 4.34994 30.1141 2.66236 27.3379 1.56387C25.9036 0.996455 24.3226 1.96078 24.1493 3.49322L23.233 11.5971C23.0205 13.4747 24.9978 14.8241 26.669 13.9415L33.8821 10.1359C35.2555 9.41125 35.5603 7.57973 34.5 6.4456Z" fill="url(#paint3_linear_8_10)"/>
<path d="M33.5746 34.4921C35.6707 32.5334 37.3587 30.1072 38.4574 27.3317C39.0249 25.8977 38.0604 24.3171 36.5276 24.1438L28.4219 23.2277C26.5439 23.0152 25.1942 24.9921 26.077 26.6629L29.8834 33.8744C30.6075 35.2475 32.4395 35.5522 33.5746 34.4921Z" fill="url(#paint4_linear_8_10)"/>
<path d="M19.3454 39.8497C22.3299 39.9476 25.2278 39.3669 27.86 38.2251C29.2851 37.6066 29.7353 35.8059 28.7637 34.5935L23.6642 28.2296C22.4823 26.7545 20.1317 27.2045 19.5782 29.0115L17.1892 36.81C16.7376 38.2845 17.8035 39.7987 19.3454 39.8497Z" fill="url(#paint5_linear_8_10)"/>
<path d="M20.4302 11.0108L22.8394 3.2186C23.2952 1.74486 22.2335 0.227789 20.6916 0.173284C17.7078 0.067068 14.8079 0.640772 12.1728 1.7756C10.7463 2.38984 10.2913 4.18991 11.2593 5.40441L16.342 11.7815C17.5198 13.2602 19.8717 12.8164 20.4302 11.0108Z" fill="url(#paint6_linear_8_10)"/>
<path d="M5.52166 33.5662C7.4808 35.6619 9.90755 37.3495 12.6838 38.448C14.118 39.0154 15.699 38.0511 15.8724 36.5186L16.7887 28.4148C17.0012 26.5371 15.0238 25.1878 13.3527 26.0703L6.13953 29.8759C4.7661 30.6006 4.46136 32.4321 5.52166 33.5662Z" fill="url(#paint7_linear_8_10)"/>
</g>
<path d="M55.592 24.832H60.968V28H51.488V11.152H55.592V24.832ZM76.1495 14.608V28H72.0455V26.176C71.6295 26.768 71.0615 27.248 70.3415 27.616C69.6375 27.968 68.8535 28.144 67.9895 28.144C66.9655 28.144 66.0615 27.92 65.2775 27.472C64.4935 27.008 63.8855 26.344 63.4535 25.48C63.0215 24.616 62.8055 23.6 62.8055 22.432V14.608H66.8855V21.88C66.8855 22.776 67.1175 23.472 67.5815 23.968C68.0455 24.464 68.6695 24.712 69.4535 24.712C70.2535 24.712 70.8855 24.464 71.3495 23.968C71.8135 23.472 72.0455 22.776 72.0455 21.88V14.608H76.1495ZM87.2574 14.464C88.8254 14.464 90.0734 14.976 91.0014 16C91.9454 17.008 92.4174 18.4 92.4174 20.176V28H88.3374V20.728C88.3374 19.832 88.1054 19.136 87.6414 18.64C87.1774 18.144 86.5534 17.896 85.7694 17.896C84.9854 17.896 84.3614 18.144 83.8974 18.64C83.4334 19.136 83.2014 19.832 83.2014 20.728V28H79.0974V14.608H83.2014V16.384C83.6174 15.792 84.1774 15.328 84.8814 14.992C85.5854 14.64 86.3774 14.464 87.2574 14.464ZM94.4533 21.28C94.4533 19.904 94.7093 18.696 95.2213 17.656C95.7493 16.616 96.4613 15.816 97.3573 15.256C98.2533 14.696 99.2533 14.416 100.357 14.416C101.301 14.416 102.125 14.608 102.829 14.992C103.549 15.376 104.101 15.88 104.485 16.504V14.608H108.589V28H104.485V26.104C104.085 26.728 103.525 27.232 102.805 27.616C102.101 28 101.277 28.192 100.333 28.192C99.2453 28.192 98.2533 27.912 97.3573 27.352C96.4613 26.776 95.7493 25.968 95.2213 24.928C94.7093 23.872 94.4533 22.656 94.4533 21.28ZM104.485 21.304C104.485 20.28 104.197 19.472 103.621 18.88C103.061 18.288 102.373 17.992 101.557 17.992C100.741 17.992 100.045 18.288 99.4693 18.88C98.9093 19.456 98.6293 20.256 98.6293 21.28C98.6293 22.304 98.9093 23.12 99.4693 23.728C100.045 24.32 100.741 24.616 101.557 24.616C102.373 24.616 103.061 24.32 103.621 23.728C104.197 23.136 104.485 22.328 104.485 21.304ZM115.662 16.84C116.142 16.104 116.742 15.528 117.462 15.112C118.182 14.68 118.982 14.464 119.862 14.464V18.808H118.734C117.71 18.808 116.942 19.032 116.43 19.48C115.918 19.912 115.662 20.68 115.662 21.784V28H111.558V14.608H115.662V16.84Z" fill="#8A20FB"/>
<defs>
<linearGradient id="paint0_linear_8_10" x1="39.4117" y1="15.1176" x2="1.76469" y2="27.7059" gradientUnits="userSpaceOnUse">
<stop stop-color="#DB00FF"/>
<stop offset="1" stop-color="#2E43F5"/>
</linearGradient>
<linearGradient id="paint1_linear_8_10" x1="39.4117" y1="15.1176" x2="1.76469" y2="27.7059" gradientUnits="userSpaceOnUse">
<stop stop-color="#DB00FF"/>
<stop offset="1" stop-color="#2E43F5"/>
</linearGradient>
<linearGradient id="paint2_linear_8_10" x1="39.4117" y1="15.1176" x2="1.76469" y2="27.7059" gradientUnits="userSpaceOnUse">
<stop stop-color="#DB00FF"/>
<stop offset="1" stop-color="#2E43F5"/>
</linearGradient>
<linearGradient id="paint3_linear_8_10" x1="39.4117" y1="15.1176" x2="1.76469" y2="27.7059" gradientUnits="userSpaceOnUse">
<stop stop-color="#DB00FF"/>
<stop offset="1" stop-color="#2E43F5"/>
</linearGradient>
<linearGradient id="paint4_linear_8_10" x1="39.4117" y1="15.1176" x2="1.76469" y2="27.7059" gradientUnits="userSpaceOnUse">
<stop stop-color="#DB00FF"/>
<stop offset="1" stop-color="#2E43F5"/>
</linearGradient>
<linearGradient id="paint5_linear_8_10" x1="39.4117" y1="15.1176" x2="1.76469" y2="27.7059" gradientUnits="userSpaceOnUse">
<stop stop-color="#DB00FF"/>
<stop offset="1" stop-color="#2E43F5"/>
</linearGradient>
<linearGradient id="paint6_linear_8_10" x1="39.4117" y1="15.1176" x2="1.76469" y2="27.7059" gradientUnits="userSpaceOnUse">
<stop stop-color="#DB00FF"/>
<stop offset="1" stop-color="#2E43F5"/>
</linearGradient>
<linearGradient id="paint7_linear_8_10" x1="39.4117" y1="15.1176" x2="1.76469" y2="27.7059" gradientUnits="userSpaceOnUse">
<stop stop-color="#DB00FF"/>
<stop offset="1" stop-color="#2E43F5"/>
</linearGradient>
<clipPath id="clip0_8_10">
<rect width="40" height="40" fill="white"/>
</clipPath>
</defs>
</svg>

<svg width="121" height="40" fill="none" xmlns="http://www.w3.org/2000/svg"><g clip-path="url(#a)"><path d="M.174 19.326a19.73 19.73 0 0 0 1.603 8.517 2.355 2.355 0 0 0 3.63.913l6.378-5.082c1.478-1.177 1.034-3.529-.772-4.087L3.22 17.178c-1.474-.455-2.991.607-3.046 2.148Z" fill="url(#b)"/><path d="M6.447 5.52a19.735 19.735 0 0 0-4.883 7.16c-.567 1.434.397 3.015 1.93 3.188l8.106.916c1.878.213 3.227-1.764 2.345-3.435l-3.807-7.212a2.355 2.355 0 0 0-3.69-.617Z" fill="url(#c)"/><path d="M39.848 20.686a19.73 19.73 0 0 0-1.603-8.517 2.355 2.355 0 0 0-3.63-.913l-6.378 5.082c-1.479 1.177-1.035 3.528.771 4.087l7.794 2.409c1.474.455 2.991-.606 3.046-2.148Z" fill="url(#d)"/><path d="M34.5 6.446a19.74 19.74 0 0 0-7.162-4.882c-1.434-.568-3.015.397-3.189 1.93l-.916 8.103c-.213 1.878 1.765 3.227 3.436 2.345l7.213-3.806a2.354 2.354 0 0 0 .618-3.69Z" fill="url(#e)"/><path d="M33.575 34.492a19.735 19.735 0 0 0 4.882-7.16c.568-1.434-.397-3.015-1.93-3.188l-8.105-.916c-1.878-.213-3.228 1.764-2.345 3.435l3.806 7.211a2.355 2.355 0 0 0 3.692.618Z" fill="url(#f)"/><path d="M19.345 39.85a19.749 19.749 0 0 0 8.515-1.625 2.354 2.354 0 0 0 .904-3.632l-5.1-6.363c-1.182-1.476-3.532-1.026-4.086.782L17.19 36.81c-.451 1.474.614 2.989 2.156 3.04Z" fill="url(#g)"/><path d="m20.43 11.01 2.41-7.791c.455-1.474-.607-2.991-2.148-3.046a19.743 19.743 0 0 0-8.52 1.603 2.354 2.354 0 0 0-.913 3.628l5.083 6.377c1.178 1.48 3.53 1.035 4.088-.77Z" fill="url(#h)"/><path d="M5.522 33.566a19.74 19.74 0 0 0 7.162 4.882c1.434.567 3.015-.397 3.188-1.93l.917-8.103c.212-1.878-1.765-3.227-3.436-2.345L6.14 29.876a2.354 2.354 0 0 0-.618 3.69Z" fill="url(#i)"/></g><path d="M55.592 24.832h5.376V28h-9.48V11.152h4.104v13.68ZM76.15 14.608V28h-4.105v-1.824c-.416.592-.984 1.072-1.704 1.44-.703.352-1.487.528-2.351.528-1.024 0-1.928-.224-2.712-.672-.785-.464-1.393-1.128-1.825-1.992-.431-.864-.648-1.88-.648-3.048v-7.824h4.08v7.272c0 .896.233 1.592.697 2.088.464.496 1.088.744 1.872.744.8 0 1.431-.248 1.896-.744.464-.496.696-1.192.696-2.088v-7.272h4.103Zm11.107-.144c1.568 0 2.816.512 3.744 1.536.944 1.008 1.416 2.4 1.416 4.176V28h-4.08v-7.272c0-.896-.232-1.592-.696-2.088-.464-.496-1.088-.744-1.872-.744s-1.408.248-1.872.744c-.464.496-.696 1.192-.696 2.088V28h-4.104V14.608h4.104v1.776c.416-.592.976-1.056 1.68-1.392.704-.352 1.496-.528 2.376-.528Zm7.196 6.816c0-1.376.256-2.584.768-3.624.528-1.04 1.24-1.84 2.136-2.4.896-.56 1.896-.84 3-.84.944 0 1.768.192 2.472.576.72.384 1.272.888 1.656 1.512v-1.896h4.104V28h-4.104v-1.896c-.4.624-.96 1.128-1.68 1.512-.704.384-1.528.576-2.472.576-1.088 0-2.08-.28-2.976-.84-.896-.576-1.608-1.384-2.136-2.424-.512-1.056-.768-2.272-.768-3.648Zm10.032.024c0-1.024-.288-1.832-.864-2.424a2.73 2.73 0 0 0-2.064-.888c-.816 0-1.512.296-2.088.888-.56.576-.84 1.376-.84 2.4s.28 1.84.84 2.448c.576.592 1.272.888 2.088.888a2.73 2.73 0 0 0 2.064-.888c.576-.592.864-1.4.864-2.424Zm11.177-4.464a5.3 5.3 0 0 1 1.8-1.728 4.576 4.576 0 0 1 2.4-.648v4.344h-1.128c-1.024 0-1.792.224-2.304.672-.512.432-.768 1.2-.768 2.304V28h-4.104V14.608h4.104v2.232Z" fill="#8A20FB"/><defs><linearGradient id="b" x1="39.412" y1="15.118" x2="1.765" y2="27.706" gradientUnits="userSpaceOnUse"><stop stop-color="#DB00FF"/><stop offset="1" stop-color="#2E43F5"/></linearGradient><linearGradient id="c" x1="39.412" y1="15.118" x2="1.765" y2="27.706" gradientUnits="userSpaceOnUse"><stop stop-color="#DB00FF"/><stop offset="1" stop-color="#2E43F5"/></linearGradient><linearGradient id="d" x1="39.412" y1="15.118" x2="1.765" y2="27.706" gradientUnits="userSpaceOnUse"><stop stop-color="#DB00FF"/><stop offset="1" stop-color="#2E43F5"/></linearGradient><linearGradient id="e" x1="39.412" y1="15.118" x2="1.765" y2="27.706" gradientUnits="userSpaceOnUse"><stop stop-color="#DB00FF"/><stop offset="1" stop-color="#2E43F5"/></linearGradient><linearGradient id="f" x1="39.412" y1="15.118" x2="1.765" y2="27.706" gradientUnits="userSpaceOnUse"><stop stop-color="#DB00FF"/><stop offset="1" stop-color="#2E43F5"/></linearGradient><linearGradient id="g" x1="39.412" y1="15.118" x2="1.765" y2="27.706" gradientUnits="userSpaceOnUse"><stop stop-color="#DB00FF"/><stop offset="1" stop-color="#2E43F5"/></linearGradient><linearGradient id="h" x1="39.412" y1="15.118" x2="1.765" y2="27.706" gradientUnits="userSpaceOnUse"><stop stop-color="#DB00FF"/><stop offset="1" stop-color="#2E43F5"/></linearGradient><linearGradient id="i" x1="39.412" y1="15.118" x2="1.765" y2="27.706" gradientUnits="userSpaceOnUse"><stop stop-color="#DB00FF"/><stop offset="1" stop-color="#2E43F5"/></linearGradient><clipPath id="a"><path fill="#fff" d="M0 0h40v40H0z"/></clipPath></defs></svg>
